X:1
T:Title
%%score { ( 1 3 ) | ( 2 4 ) }
L:1/8
Q:1/4=84
M:4/4
K:Ab
V:1 treble nm="Grand Piano"
V:3 treble 
V:2 bass 
V:4 bass 
V:1
 [CE]8 | .[DF]2 .[FA]2 .[EG]2 .[DF]2 | [CE]8 | [EG]8 | .[FA]2 .[Ac]2 .[GB]2 .[FA]2 | G8 | B8 | %7
w: Wm.~J.~Kirkpatrick|||||||
 .c2 .[DB]2 .[CA]2 .[FB]2 | [=Ec]8 | c4 z4 |[M:5/4] [DFA]3 F F6 | %11
w: ||||
[M:4/4] E2 A2 G2 B2[Q:1/4=83][Q:1/4=82][Q:1/4=80][Q:1/4=79][Q:1/4=78][Q:1/4=77][Q:1/4=75][Q:1/4=74][Q:1/4=73] | %12
w: |
 A8[Q:1/4=72][Q:1/4=70][Q:1/4=69][Q:1/4=68][Q:1/4=67][Q:1/4=65][Q:1/4=64] |] %13
w: |
V:2
 [A,,A,]8 | [D,A,]2 [D,A,]2 [D,A,]2 [D,A,]2 | [A,,A,]8 | [E,B,]8 | %4
 [=D,B,]2 [B,,B,]2 [B,,B,]2 [B,,B,]2 | [E,B,E]8 | [E,G,E]8 | .[A,E]2 [E,G,]2 [F,A,]2 [D,F,]2 | %8
 [C,G,]8 | z2 A2 E,2 F,2 |[M:5/4] D,3 [D,A,D] [D,A,D]6 |[M:4/4] [A,C]2 [CE]2 [E,B,E]2 [E,DE]2 | %12
 [CE]8 |] %13
V:3
 x8 | x8 | x8 | x8 | x8 | x8 | x8 | x8 | x8 | E2 z2 [DGB]2 [CFA]2 |[M:5/4] x10 |[M:4/4] x8 | x8 |] %13
V:4
 x8 | x8 | x8 | x8 | x8 | x8 | x8 | x8 | x8 | [A,,A,]4 z4 |[M:5/4] x10 |[M:4/4] E,4 z4 | x8 |] %13

